X: 21
T: Paddy O'Rafferty
R: jig
M: 6/8
L: 1/8
K: Amix
|:cAF ~E2F|ABc ded|cAF ~E2F|AcB AFE |
cAF ~E2F|ABc d2d|eae ~c3 |BcA BAF:|
|:Acc Acc|Acc dcB|Acc Acc|AcB AFE |
Acc Acc|ABc efe|afe cBA|B2c BAF:|


Tune 741	Setting 26388

